X:1
T:Title
%%score { ( 1 3 ) | 2 }
L:1/8
M:3/4
K:D
V:1 treble nm="Grand Piano"
V:3 treble 
V:2 bass 
V:1
 z2 z2[Q:1/4=100] F2 | FE E3 B | BA A3 [Fd] | [Gd][Gc] [EGc]3 [CGB] |[M:5/8] [GB][FA] [FA]3 | %5
[M:1/8] F |[M:3/4] FE E3 B | BA A3 B | cc c2 B2 | [DB] [CA]3 z2 | [Fd][Fd] [FA]2 [DF]2 | %11
 [B,F] .[B,E]3 [B,E]2 | [CB][CB] [CB]2 [CG]2 |[M:2/4] F4 |[M:1/4] D2 |[M:3/4] FF G2 ^G2 | A d3 D2 | %17
 z2 z2 [CA]2 |[M:2/4] A4 |] %19
V:2
 z2 z2 [D,A,D]2 | [D,G,C][D,G,C] [D,G,C]3 [D,G,C] | [D,F,D][D,F,D] [D,F,D]3 [D,A,] | %3
 [E,A,][E,A,] A,3 A,, |[M:5/8] [D,D][D,D] [D,D]3 |[M:1/8] [D,A,D] | %6
[M:3/4] [G,A,C][G,A,C] [G,A,C]3 [G,A,C] | [F,A,D][F,A,D] [F,A,D]3 [=F,A,^D] | %8
 [E,A,E][E,A,E] [E,A,E]2 [E,^G,D]2 | [A,,^G,] [A,,A,]3 z2 | [D,A,][D,A,] [D,D]2 [D,A,]2 | %11
 [G,,G,] .[G,,G,]3 [G,,G,]2 | [A,,G,][A,,G,] [A,,E,]2 [A,,A,]2 |[M:2/4] [D,A,D]4 |[M:1/4] [D,F,]2 | %15
[M:3/4] [D,A,D][D,A,D] [E,A,C]2 [=F,B,D]2 | [F,A,D] [F,A,D]3 [B,,F,]2 | %17
 [A,,F,][A,,F,] [A,,F,]2 .[A,,E,]2 |[M:2/4] [D,F,D]4 |] %19
V:3
 x6 | x6 | x6 | x6 |[M:5/8] x5 |[M:1/8] x |[M:3/4] x6 | x6 | x6 | x6 | x6 | x6 | x6 |[M:2/4] x4 | %14
[M:1/4] x2 |[M:3/4] x6 | x6 | [DA][DA] [DA]2 z G, |[M:2/4] x4 |] %19

